openmetadata-ui/src/main/resources/ui/src/assets/svg/announcements-primary.svg

<svg width="34" height="34" viewBox="0 0 34 34" fill="none" xmlns="http://www.w3.org/2000/svg">
<path d="M20.5366 11.1736C17.4432 6.57866 13.3117 4.13649 11.1481 5.63285C10.9099 5.80225 10.7028 6.01247 10.5364 6.25398C10.5364 6.27163 5.52763 16.5062 5.52763 16.5062L2.73137 18.419C2.3021 18.7132 1.93445 19.0899 1.64942 19.5276C1.36439 19.9653 1.16757 20.4555 1.07019 20.97C0.972814 21.4845 0.976793 22.0134 1.0819 22.5264C1.18701 23.0394 1.39119 23.5264 1.68277 23.9597L1.8086 24.1468C2.39799 25.0136 3.30209 25.6109 4.32481 25.8091C5.34754 26.0073 6.40642 25.7904 7.27179 25.2055L11.7633 31.8862C12.4239 32.7085 13.6927 33.5272 15.2586 32.5638C15.536 32.3822 15.7727 32.1439 15.9533 31.8643C16.1339 31.5846 16.2544 31.2699 16.3072 30.9404C16.3705 30.6126 16.3688 30.2754 16.3022 29.9483C16.2356 29.6212 16.1054 29.3106 15.9192 29.0346L11.9625 23.141C11.9625 23.141 21.316 22.3892 21.351 22.3751C21.643 22.3134 21.9199 22.1934 22.1654 22.0222C23.2769 21.2599 23.6754 19.6612 23.2909 17.519C22.9448 15.5462 21.9626 13.3123 20.5366 11.1736ZM2.82574 23.4515L2.69991 23.2645C2.49873 22.9654 2.35794 22.6293 2.2856 22.2752C2.21325 21.9212 2.21077 21.5562 2.2783 21.2012C2.34583 20.8462 2.48205 20.5081 2.67914 20.2063C2.87624 19.9045 3.13036 19.6449 3.42694 19.4424L5.84221 17.7837L9.02994 22.5234L6.61467 24.1821C6.31843 24.3854 5.9854 24.5279 5.63461 24.6012C5.28382 24.6746 4.92214 24.6774 4.57026 24.6096C4.21838 24.5418 3.8832 24.4046 3.58386 24.2058C3.28452 24.0071 3.02691 23.7508 2.82574 23.4515ZM14.9126 29.7299C15.1036 30.0169 15.1741 30.3687 15.1086 30.7081C15.043 31.0475 14.8469 31.3468 14.563 31.5403C14.2782 31.7334 13.9293 31.8047 13.5926 31.7385C13.2558 31.6724 12.9588 31.4742 12.7664 31.1874L8.28893 24.5279L10.089 23.2927L10.5644 23.2539L14.9126 29.7299ZM10.1869 22.0434L6.71254 16.8767L10.0261 10.0549C10.3477 11.9712 11.2879 14.2475 12.7909 16.4815C14.2939 18.7154 16.0416 20.4376 17.6844 21.447L10.1869 22.0434ZM20.4981 21.2211C18.8273 21.1117 16.108 19.2095 13.8046 15.7827C11.5011 12.3559 10.7531 9.11259 11.267 7.49977C11.3597 7.19703 11.5449 6.93165 11.796 6.74151C12.0471 6.55137 12.3513 6.4462 12.6651 6.44102C14.3219 6.44102 17.1426 8.35382 19.5124 11.8794C20.8476 13.8628 21.8193 15.938 22.085 17.7519C22.6058 21.2211 20.4981 21.2211 20.4981 21.2211Z" fill="#7147e8" stroke="#7147e8" stroke-width="0.5"/>
<path d="M16.1674 11.3102C15.7393 11.2253 15.2987 11.2274 14.8713 11.3165C14.444 11.4056 14.0386 11.5798 13.6788 11.8289C13.6124 11.8753 13.5558 11.9344 13.5121 12.0028C13.4684 12.0713 13.4384 12.1477 13.424 12.2278C13.4095 12.308 13.4109 12.3902 13.4279 12.4698C13.4449 12.5494 13.4773 12.6248 13.5232 12.6918C13.5691 12.7588 13.6276 12.816 13.6954 12.8601C13.7632 12.9042 13.8389 12.9345 13.9183 12.949C13.9977 12.9636 14.0791 12.9623 14.1579 12.9451C14.2368 12.9279 14.3115 12.8952 14.3778 12.8489C14.6057 12.6927 14.8619 12.5833 15.1316 12.5271C15.4013 12.4709 15.6794 12.4688 15.95 12.5211C16.2205 12.5734 16.4782 12.6789 16.7083 12.8317C16.9384 12.9846 17.1365 13.1817 17.2912 13.4118C17.4459 13.6419 17.5541 13.9005 17.6098 14.1728C17.6655 14.4452 17.6676 14.726 17.6158 14.9991C17.564 15.2723 17.4595 15.5324 17.3081 15.7648C17.1568 15.9971 16.9616 16.1971 16.7337 16.3533C16.6262 16.4282 16.5453 16.5359 16.5028 16.6606C16.4604 16.7853 16.4585 16.9204 16.4976 17.0462C16.5366 17.172 16.6146 17.2819 16.7199 17.3598C16.8253 17.4377 16.9526 17.4795 17.0832 17.4791C17.2078 17.4814 17.33 17.4444 17.4327 17.3732C17.9764 17.0014 18.3985 16.475 18.6456 15.8607C18.8927 15.2464 18.9537 14.5719 18.8208 13.9226C18.6879 13.2733 18.3672 12.6785 17.8992 12.2134C17.4312 11.7483 16.837 11.434 16.1919 11.3102H16.1674Z" fill="#7147e8" stroke="#7147e8" stroke-width="0.5"/>
<path d="M23.2731 6.883H23.3325C23.4838 6.88293 23.6297 6.82626 23.742 6.72393C23.8544 6.6216 23.9252 6.48087 23.9407 6.32892L24.4126 1.69868C24.4233 1.6168 24.4177 1.53358 24.396 1.45395C24.3743 1.37431 24.3371 1.29987 24.2864 1.23503C24.2357 1.1702 24.1727 1.11628 24.101 1.07647C24.0294 1.03667 23.9505 1.01178 23.8691 1.00328C23.7878 0.99478 23.7055 1.00284 23.6273 1.027C23.5491 1.05115 23.4765 1.09089 23.4137 1.14389C23.351 1.19688 23.2994 1.26203 23.262 1.33551C23.2247 1.40898 23.2023 1.48927 23.1962 1.57163L22.7278 6.2054C22.7112 6.36825 22.7593 6.5311 22.8616 6.65815C22.9638 6.78521 23.1118 6.86608 23.2731 6.883Z" fill="#7147e8" stroke="#7147e8" stroke-width="0.5"/>
<path d="M31.1797 5.93012C31.0899 5.79342 30.9502 5.69815 30.791 5.66509C30.6319 5.63203 30.4663 5.66387 30.3303 5.75366L26.0696 8.57698C25.9589 8.65075 25.875 8.7588 25.8305 8.88489C25.7859 9.01097 25.7832 9.14826 25.8226 9.27606C25.862 9.40387 25.9415 9.51528 26.0491 9.59351C26.1567 9.67175 26.2865 9.71258 26.4191 9.70984C26.5427 9.71272 26.6644 9.67831 26.7686 9.61103L31.0294 6.7877C31.1616 6.6938 31.2516 6.5509 31.2797 6.39021C31.3079 6.22952 31.2719 6.06411 31.1797 5.93012Z" fill="#7147e8" stroke="#7147e8" stroke-width="0.5"/>
<path d="M32.482 13.4702L27.5256 12.5703C27.3657 12.5413 27.201 12.5776 27.0676 12.6712C26.9342 12.7649 26.8431 12.9082 26.8143 13.0697C26.7856 13.2311 26.8216 13.3975 26.9143 13.5322C27.0071 13.6669 27.149 13.7588 27.3089 13.7879L32.2618 14.6878H32.3702C32.526 14.6924 32.6777 14.6367 32.7943 14.5322C32.9109 14.4276 32.9835 14.2821 32.9973 14.1253C33.0111 13.9684 32.9651 13.8122 32.8687 13.6885C32.7723 13.5648 32.6327 13.4829 32.4785 13.4596L32.482 13.4702Z" fill="#7147e8" stroke="#7147e8" stroke-width="0.5"/>
<defs>
<linearGradient id="paint0_linear_10028_17778" x1="1.71818" y1="5.62783" x2="25.805" y2="30.9535" gradientUnits="userSpaceOnUse">
<stop stop-color="#7147E8"/>
<stop offset="0.395833" stop-color="#5D57ED"/>
<stop offset="1" stop-color="#1890FF"/>
</linearGradient>
<linearGradient id="paint1_linear_10028_17778" x1="1.71818" y1="5.62783" x2="25.805" y2="30.9535" gradientUnits="userSpaceOnUse">
<stop stop-color="#7147E8"/>
<stop offset="0.395833" stop-color="#5D57ED"/>
<stop offset="1" stop-color="#1890FF"/>
</linearGradient>
<linearGradient id="paint2_linear_10028_17778" x1="13.5894" y1="11.3454" x2="18.9445" y2="17.478" gradientUnits="userSpaceOnUse">
<stop stop-color="#7147E8"/>
<stop offset="0.395833" stop-color="#5D57ED"/>
<stop offset="1" stop-color="#1890FF"/>
</linearGradient>
<linearGradient id="paint3_linear_10028_17778" x1="13.5894" y1="11.3454" x2="18.9445" y2="17.478" gradientUnits="userSpaceOnUse">
<stop stop-color="#7147E8"/>
<stop offset="0.395833" stop-color="#5D57ED"/>
<stop offset="1" stop-color="#1890FF"/>
</linearGradient>
<linearGradient id="paint4_linear_10028_17778" x1="22.7788" y1="1.09192" x2="26.1346" y2="2.35069" gradientUnits="userSpaceOnUse">
<stop stop-color="#7147E8"/>
<stop offset="0.395833" stop-color="#5D57ED"/>
<stop offset="1" stop-color="#1890FF"/>
</linearGradient>
<linearGradient id="paint5_linear_10028_17778" x1="22.7788" y1="1.09192" x2="26.1346" y2="2.35069" gradientUnits="userSpaceOnUse">
<stop stop-color="#7147E8"/>
<stop offset="0.395833" stop-color="#5D57ED"/>
<stop offset="1" stop-color="#1890FF"/>
</linearGradient>
<linearGradient id="paint6_linear_10028_17778" x1="25.9708" y1="5.71574" x2="28.99" y2="11.0435" gradientUnits="userSpaceOnUse">
<stop stop-color="#7147E8"/>
<stop offset="0.395833" stop-color="#5D57ED"/>
<stop offset="1" stop-color="#1890FF"/>
</linearGradient>
<linearGradient id="paint7_linear_10028_17778" x1="25.9708" y1="5.71574" x2="28.99" y2="11.0435" gradientUnits="userSpaceOnUse">
<stop stop-color="#7147E8"/>
<stop offset="0.395833" stop-color="#5D57ED"/>
<stop offset="1" stop-color="#1890FF"/>
</linearGradient>
<linearGradient id="paint8_linear_10028_17778" x1="27.003" y1="12.5938" x2="27.9124" y2="16.0447" gradientUnits="userSpaceOnUse">
<stop stop-color="#7147E8"/>
<stop offset="0.395833" stop-color="#5D57ED"/>
<stop offset="1" stop-color="#1890FF"/>
</linearGradient>
<linearGradient id="paint9_linear_10028_17778" x1="27.003" y1="12.5938" x2="27.9124" y2="16.0447" gradientUnits="userSpaceOnUse">
<stop stop-color="#7147E8"/>
<stop offset="0.395833" stop-color="#5D57ED"/>
<stop offset="1" stop-color="#1890FF"/>
</linearGradient>
</defs>
</svg>

<svg xmlns="http://www.w3.org/2000/svg" width="34" height="34" fill="none"><path fill="#7147e8" stroke="#7147e8" stroke-width=".5" d="M20.537 11.174c-3.094-4.595-7.225-7.038-9.389-5.541-.238.17-.445.38-.612.621 0 .018-5.008 10.252-5.008 10.252L2.73 18.42a3.97 3.97 0 0 0-1.082 1.109 4.01 4.01 0 0 0-.567 2.998c.105.513.31 1 .6 1.434l.127.187a3.954 3.954 0 0 0 2.516 1.662 3.926 3.926 0 0 0 2.947-.604l4.491 6.681c.66.823 1.93 1.641 3.496.678a2.378 2.378 0 0 0 1.048-1.624 2.55 2.55 0 0 0-.388-1.905l-3.957-5.894s9.354-.752 9.389-.766a2.23 2.23 0 0 0 .814-.353c1.112-.762 1.51-2.36 1.126-4.503-.346-1.973-1.328-4.207-2.754-6.345ZM2.826 23.45l-.126-.186a2.764 2.764 0 0 1-.422-2.064 2.764 2.764 0 0 1 1.149-1.759l2.415-1.658 3.188 4.74-2.415 1.658a2.713 2.713 0 0 1-2.045.428 2.71 2.71 0 0 1-1.744-1.159Zm12.087 6.279a1.316 1.316 0 0 1-.35 1.81 1.286 1.286 0 0 1-1.797-.353l-4.477-6.66 1.8-1.234.475-.04 4.349 6.477Zm-4.726-7.687-3.474-5.166 3.313-6.822c.322 1.916 1.262 4.193 2.765 6.427 1.503 2.233 3.25 3.956 4.893 4.965l-7.497.596Zm10.311-.822c-1.67-.11-4.39-2.012-6.693-5.438-2.304-3.427-3.052-6.67-2.538-8.283.093-.303.278-.568.529-.758a1.48 1.48 0 0 1 .87-.301c1.656 0 4.477 1.913 6.846 5.438 1.336 1.984 2.307 4.059 2.573 5.873.52 3.47-1.587 3.47-1.587 3.47Z"/><path fill="#7147e8" stroke="#7147e8" stroke-width=".5" d="M16.167 11.31a3.25 3.25 0 0 0-2.488.519.618.618 0 0 0-.251.64.623.623 0 0 0 .49.48.608.608 0 0 0 .46-.1 2.086 2.086 0 0 1 2.33-.017 2.11 2.11 0 0 1 .902 1.34 2.137 2.137 0 0 1-.302 1.593 2.108 2.108 0 0 1-.574.588.617.617 0 0 0-.236.693.618.618 0 0 0 .935.327 3.342 3.342 0 0 0 1.213-1.512 3.38 3.38 0 0 0-.747-3.648 3.306 3.306 0 0 0-1.707-.903h-.025ZM23.273 6.883h.06a.608.608 0 0 0 .409-.16.62.62 0 0 0 .199-.394l.472-4.63a.624.624 0 0 0-.312-.623.607.607 0 0 0-.839.26.623.623 0 0 0-.066.236l-.468 4.633a.622.622 0 0 0 .134.453.61.61 0 0 0 .411.225ZM31.18 5.93a.615.615 0 0 0-.85-.176l-4.26 2.823a.616.616 0 0 0-.247.7.617.617 0 0 0 .596.433.618.618 0 0 0 .35-.099l4.26-2.823a.618.618 0 0 0 .15-.858ZM32.482 13.47l-4.956-.9a.608.608 0 0 0-.458.101.62.62 0 0 0 .24 1.117l4.954.9h.108a.609.609 0 0 0 .424-.156.62.62 0 0 0-.316-1.072l.004.01Z"/></svg>
